dist/assets/images/main/advantages4.svg

<svg width="60" height="60" viewBox="0 0 60 60" fill="none" xmlns="http://www.w3.org/2000/svg">
<path fill-rule="evenodd" clip-rule="evenodd" d="M24.7769 1.16088C24.3828 1.29983 23.9743 1.65289 22.8514 2.82517C20.2054 5.58763 19.5844 6.3444 19.4537 6.96596C19.3096 7.65054 19.4934 8.48586 19.9096 9.03885C20.5737 9.92132 29.0233 19.9393 29.2711 20.1381C29.7407 20.5148 30.3027 20.691 31.0262 20.6883C31.8286 20.6855 32.4531 20.4407 32.9498 19.9342C33.8216 19.0452 42.0957 9.05869 42.3287 8.61416C42.664 7.97436 42.6877 7.06423 42.3843 6.47202C42.0271 5.77487 38.0406 1.57457 37.4583 1.28204C36.9512 1.02725 36.9262 1.02612 31.1131 1.00538C26.0828 0.987354 25.2081 1.00878 24.7769 1.16088ZM28.3685 4.26494C27.7881 5.14231 27.2979 5.84366 27.2791 5.82338C27.1734 5.70901 25.555 2.83175 25.555 2.75808C25.555 2.70945 26.4255 2.66967 27.4893 2.66967H29.4238L28.3685 4.26494ZM36.449 2.75808C36.449 2.83175 34.8306 5.70901 34.7248 5.82338C34.7061 5.84366 34.2158 5.14231 33.6354 4.26494L32.5802 2.66967H34.5146C35.5785 2.66967 36.449 2.70945 36.449 2.75808ZM32.0993 4.98386C32.6574 5.82031 33.1141 6.53436 33.1141 6.57063C33.1141 6.6069 32.1636 6.63659 31.002 6.63659C29.8403 6.63659 28.8899 6.6069 28.8899 6.57063C28.8899 6.44811 30.9187 3.46306 31.002 3.46306C31.0473 3.46306 31.5411 4.14741 32.0993 4.98386ZM25.0649 5.35471L25.7664 6.57992L24.71 6.61245C24.129 6.63036 23.2023 6.63036 22.6507 6.61245L21.6477 6.57992L22.8946 5.2416C23.7242 4.35119 24.1786 3.94113 24.2524 4.01638C24.3134 4.07861 24.679 4.6809 25.0649 5.35471ZM39.3551 6.61245C38.8025 6.63036 37.8743 6.63036 37.2925 6.61245L36.2346 6.57992L36.8515 5.50319C37.1909 4.91098 37.5476 4.30042 37.6444 4.14627L37.8204 3.86621L39.0902 5.22301L40.36 6.57992L39.3551 6.61245ZM27.2552 10.8019C27.6035 12.1578 28.1091 14.1213 28.3788 15.1655C28.6484 16.2097 28.8526 17.0639 28.8326 17.0639C28.8008 17.0639 22.0837 9.05404 21.6785 8.5329C21.5347 8.34804 21.6733 8.33671 24.074 8.33671H26.622L27.2552 10.8019ZM33.6412 8.47838C33.6123 8.55636 33.0193 10.8259 32.3232 13.522C31.6271 16.2181 31.0326 18.424 31.002 18.4239C30.9714 18.4239 30.3765 16.218 29.68 13.5219C28.9835 10.8259 28.3903 8.55636 28.362 8.47838C28.3215 8.36753 28.8952 8.33671 31.002 8.33671C33.1092 8.33671 33.6822 8.36742 33.6412 8.47838ZM40.3255 8.5329C39.9203 9.05404 33.2031 17.0639 33.1713 17.0639C33.1513 17.0639 33.3555 16.2097 33.6252 15.1655C33.8949 14.1213 34.4005 12.1578 34.7487 10.8019L35.3819 8.33671H37.93C40.3307 8.33671 40.4693 8.34804 40.3255 8.5329ZM14.3544 9.69827C14.0383 9.83088 13.8338 10.2757 13.9229 10.6374C14.003 10.9627 18.655 15.9373 19.0014 16.0679C19.5173 16.2625 20.108 15.8487 20.108 15.2927C20.108 14.9654 19.7287 14.5165 17.2499 11.9099C15.144 9.69555 14.8664 9.48349 14.3544 9.69827ZM46.9838 9.67481C46.6553 9.81161 42.0087 14.808 41.9362 15.1024C41.7914 15.6908 42.3493 16.2447 42.9357 16.0947C43.071 16.06 44.1225 15.0392 45.2723 13.8261C47.7777 11.1831 48.1211 10.7743 48.1211 10.4353C48.1211 9.90976 47.468 9.47306 46.9838 9.67481ZM8.73101 15.3444C8.4869 15.6195 8.4929 16.2996 8.74157 16.5257C8.98335 16.7456 16.5437 18.9907 17.0422 18.9907C17.2531 18.9907 17.4829 18.9037 17.5896 18.7834C17.8337 18.5084 17.8277 17.8283 17.579 17.6022C17.3373 17.3823 9.77694 15.1371 9.27838 15.1371C9.0675 15.1371 8.83773 15.2242 8.73101 15.3444ZM48.3815 16.3123C46.293 16.9438 44.5046 17.5307 44.4074 17.6161C44.1605 17.8332 44.1767 18.566 44.4337 18.8032C44.5456 18.9063 44.7918 18.9907 44.981 18.9907C45.4662 18.9907 53.0263 16.7404 53.2624 16.5257C53.5255 16.2864 53.5203 15.5708 53.2536 15.3247C53.1299 15.2106 52.8798 15.1424 52.6144 15.1505C52.3748 15.1578 50.4699 15.6806 48.3815 16.3123ZM11.1882 22.7779C10.611 22.9893 10.2751 23.2308 9.95614 23.6637C9.6411 24.0911 5.44836 30.9934 5.17323 31.5375C4.91556 32.0472 4.94479 32.5501 5.26461 33.1064C5.69092 33.8481 6.06587 33.9517 8.32549 33.9517H10.2115L10.2407 45.7206L10.2701 57.4894L10.5883 57.9576C10.7872 58.2501 11.1186 58.5335 11.4716 58.7129L12.0368 59H31.002H49.9672L50.5324 58.7129C50.8853 58.5336 51.2169 58.25 51.4157 57.9576L51.7339 57.4895L51.7648 52.1843C51.7952 46.9837 51.7914 46.8745 51.5703 46.649C51.3279 46.402 50.8994 46.351 50.571 46.5301C50.1587 46.7551 50.122 47.2137 50.122 52.1422C50.122 56.6315 50.1096 56.9362 49.9187 57.1123C49.7343 57.2825 49.0908 57.2999 42.971 57.2999H36.2267V45.6258V33.9517H43.1698H50.1129L50.1453 38.7785L50.1776 43.6055L50.4896 43.8789C50.8716 44.2139 51.1153 44.2233 51.4966 43.9174L51.7895 43.6826V38.8171V33.9517H53.6997C55.9273 33.9517 56.3457 33.83 56.7714 33.0579C57.0985 32.4643 57.077 31.9866 56.6912 31.2898C56.0096 30.0583 52.0942 23.6813 51.8644 23.4284C51.7315 23.282 51.4227 23.0525 51.1781 22.9183L50.7334 22.6743H41.6361H32.5386L32.3262 22.9419C32.0508 23.2885 32.0568 23.6468 32.3441 24.0191L32.5744 24.3177L41.3761 24.3194C48.1428 24.3207 50.2383 24.3534 50.4403 24.4611C50.6015 24.547 51.5931 26.0683 53.0064 28.398L55.3099 32.1949L43.1559 32.2237C36.4713 32.2396 25.5326 32.2396 18.8481 32.2237L6.69406 32.1949L8.99758 28.398C10.4109 26.0683 11.4025 24.547 11.5637 24.4611C11.7657 24.3534 13.8612 24.3207 20.6279 24.3194L29.4296 24.3177L29.6599 24.0191C29.9472 23.6468 29.9532 23.2885 29.6779 22.9419L29.4654 22.6743L20.5348 22.6499C13.2899 22.6301 11.5255 22.6542 11.1882 22.7779ZM25.7773 45.6258V57.2999H19.0329C12.9132 57.2999 12.2697 57.2825 12.0852 57.1123C11.8908 56.9329 11.8819 56.4222 11.8819 45.4382V33.9517H18.8296H25.7773V45.6258ZM34.5592 45.6258V57.2999H31.002H27.4448V45.6258V33.9517H31.002H34.5592V45.6258Z" fill="#AEA896" stroke="#AEA896" stroke-width="0.3"/>
</svg>

<svg width="60" height="60" fill="none" xmlns="http://www.w3.org/2000/svg"><path fill-rule="evenodd" clip-rule="evenodd" d="M24.777 1.16c-.394.14-.803.493-1.926 1.665-2.646 2.763-3.267 3.52-3.397 4.141-.144.685.04 1.52.456 2.073.664.882 9.113 10.9 9.361 11.1.47.376 1.032.552 1.755.55.803-.003 1.427-.248 1.924-.755.872-.889 9.146-10.875 9.379-11.32.335-.64.359-1.55.055-2.142-.357-.697-4.343-4.897-4.926-5.19-.507-.255-.532-.256-6.345-.277-5.03-.018-5.905.004-6.336.156zm3.591 3.105c-.58.877-1.07 1.579-1.089 1.558-.106-.114-1.724-2.991-1.724-3.065 0-.049.87-.088 1.934-.088h1.935l-1.055 1.595zm8.081-1.507c0 .074-1.618 2.951-1.724 3.065-.019.02-.51-.68-1.09-1.558L32.58 2.67h1.935c1.063 0 1.934.04 1.934.088zm-4.35 2.226c.558.836 1.015 1.55 1.015 1.587 0 .036-.95.066-2.112.066-1.162 0-2.112-.03-2.112-.066 0-.123 2.029-3.108 2.112-3.108.045 0 .54.684 1.097 1.52zm-7.034.37l.701 1.226-1.056.032c-.581.018-1.508.018-2.06 0l-1.002-.032 1.247-1.338c.83-.89 1.284-1.3 1.357-1.226.061.063.427.665.813 1.339zm14.29 1.258c-.552.018-1.48.018-2.063 0l-1.057-.032.617-1.077c.339-.592.696-1.203.792-1.357l.176-.28 1.27 1.357 1.27 1.357-1.005.032zm-12.1 4.19c.349 1.356.854 3.32 1.124 4.364.27 1.044.474 1.898.454 1.898-.032 0-6.75-8.01-7.154-8.531-.144-.185-.006-.196 2.395-.196h2.548l.633 2.465zm6.386-2.324c-.029.078-.622 2.348-1.318 5.044-.696 2.696-1.29 4.902-1.321 4.902-.03 0-.625-2.206-1.322-4.902a498.117 498.117 0 00-1.318-5.044c-.04-.11.533-.141 2.64-.141s2.68.03 2.64.141zm6.684.055c-.405.521-7.122 8.53-7.154 8.53-.02 0 .184-.853.454-1.897.27-1.045.776-3.008 1.124-4.364l.633-2.465h2.548c2.4 0 2.54.011 2.395.196zm-25.97 1.165c-.317.133-.521.578-.432.94.08.325 4.732 5.3 5.078 5.43.516.194 1.107-.22 1.107-.775 0-.328-.38-.776-2.858-3.383-2.106-2.214-2.384-2.427-2.896-2.212zm32.629-.023c-.329.137-4.975 5.133-5.048 5.427-.145.589.413 1.143 1 .993.135-.035 1.187-1.056 2.336-2.269 2.506-2.643 2.85-3.052 2.85-3.39 0-.526-.654-.963-1.138-.761zM8.73 15.345c-.244.274-.238.955.01 1.18.242.22 7.803 2.466 8.301 2.466.211 0 .44-.087.548-.208.244-.275.238-.955-.011-1.18-.242-.22-7.802-2.466-8.3-2.466-.211 0-.441.087-.548.207zm39.65.967c-2.088.632-3.876 1.219-3.974 1.304-.246.217-.23.95.027 1.187.112.103.358.188.547.188.485 0 8.045-2.25 8.281-2.465.264-.24.258-.955-.008-1.201-.124-.114-.374-.183-.64-.175-.24.008-2.144.53-4.232 1.162zm-37.193 6.466c-.577.211-.913.453-1.232.886-.315.427-4.508 7.33-4.783 7.873-.257.51-.228 1.013.092 1.57.426.741.8.845 3.06.845h1.886l.03 11.769.03 11.768.317.469c.2.292.53.575.884.755l.565.287h37.93l.565-.287c.353-.18.685-.463.884-.755l.318-.468.03-5.306c.031-5.2.027-5.31-.194-5.535-.242-.247-.67-.298-.999-.119-.412.225-.449.684-.449 5.612 0 4.49-.012 4.794-.203 4.97-.185.17-.828.188-6.948.188h-6.744V33.952h13.886l.032 4.827.033 4.826.312.274c.382.335.625.344 1.007.038l.292-.234v-9.731h1.91c2.228 0 2.647-.122 3.072-.894.328-.594.306-1.071-.08-1.768-.681-1.232-4.597-7.609-4.827-7.862a3.184 3.184 0 00-.686-.51l-.445-.244H32.54l-.213.268c-.275.346-.27.705.018 1.077l.23.299 8.802.001c6.767.002 8.862.034 9.064.142.162.086 1.153 1.607 2.566 3.937l2.304 3.797-12.154.029c-6.685.016-17.623.016-24.308 0l-12.154-.03 2.304-3.796c1.413-2.33 2.405-3.851 2.566-3.937.202-.108 2.297-.14 9.064-.142l8.802-.001.23-.299c.287-.372.293-.73.018-1.077l-.213-.268-8.93-.024c-7.245-.02-9.01.004-9.347.128zm14.59 22.848V57.3h-6.745c-6.12 0-6.763-.017-6.948-.188-.194-.18-.203-.69-.203-11.674V33.952h13.895v11.674zm8.781 0V57.3h-7.114V33.952h7.114v11.674z" fill="#AEA896" stroke="#AEA896" stroke-width=".3"/></svg>
